X:741
M:C|
L:1/8
K:D
g>ag>e a>ga>b|g>ag>e g<d d>e|g>ag>e a>ga>b|g<b e>f g2 f>e|
d>Bg>B A/A/A A2|D>EG>A =c/c/c c>e|d>Bg>B A/A/A A>B|

